Newaita-dark/actions/24/appointment-new.svg

<svg height="24" viewBox="0 0 24 24" width="24" xmlns="http://www.w3.org/2000/svg"><g fill="#e0e0e0"><path d="m11.90625 2.171875c-5.496094 0-9.921875 4.425781-9.921875 9.921875 0 5.5 4.425781 9.925781 9.921875 9.925781 5.5 0 9.925781-4.425781 9.925781-9.925781 0-5.496094-4.425781-9.921875-9.925781-9.921875zm0 1.984375c4.398438 0 7.9375 3.539062 7.9375 7.9375s-3.539062 7.9375-7.9375 7.9375-7.9375-3.539062-7.9375-7.9375 3.539062-7.9375 7.9375-7.9375zm0 0"/><path d="m11.410156 5.148438c-.273437 0-.496094.222656-.496094.496093v6.449219c0 .550781.445313.992188.992188.992188.550781 0 .992188-.441407.992188-.992188v-6.449219c0-.273437-.21875-.496093-.496094-.496093zm0 0"/><path d="m18.492188 9.820312c-.070313-.265624-.34375-.421874-.609376-.351562l-6.230468 1.671875c-.53125.140625-.84375.683594-.699219 1.214844.140625.53125.683594.84375 1.214844.699219l6.230469-1.667969c.265624-.070313.421874-.34375.351562-.609375zm0 0"/></g></svg>

<svg xmlns="http://www.w3.org/2000/svg" xmlns:xlink="http://www.w3.org/1999/xlink" width="24px" height="24px" viewBox="0 0 24 24" version="1.1">
<g id="surface1">
     <defs>
  <style id="current-color-scheme" type="text/css">
   .ColorScheme-Text { color:#eeeeee; } .ColorScheme-Highlight { color:#424242; }
  </style>
 </defs>
<path style="fill:currentColor" class="ColorScheme-Text" d="M 11.90625 2.171875 C 6.410156 2.171875 1.984375 6.597656 1.984375 12.09375 C 1.984375 17.59375 6.410156 22.019531 11.90625 22.019531 C 17.40625 22.019531 21.832031 17.59375 21.832031 12.09375 C 21.832031 6.597656 17.40625 2.171875 11.90625 2.171875 Z M 11.90625 4.15625 C 16.304688 4.15625 19.84375 7.695312 19.84375 12.09375 C 19.84375 16.492188 16.304688 20.03125 11.90625 20.03125 C 7.507812 20.03125 3.96875 16.492188 3.96875 12.09375 C 3.96875 7.695312 7.507812 4.15625 11.90625 4.15625 Z M 11.90625 4.15625 "/>
     <defs>
  <style id="current-color-scheme" type="text/css">
   .ColorScheme-Text { color:#eeeeee; } .ColorScheme-Highlight { color:#424242; }
  </style>
 </defs>
<path style="fill:currentColor" class="ColorScheme-Text" d="M 11.410156 5.148438 C 11.136719 5.148438 10.914062 5.371094 10.914062 5.644531 L 10.914062 12.09375 C 10.914062 12.644531 11.359375 13.085938 11.90625 13.085938 C 12.457031 13.085938 12.898438 12.644531 12.898438 12.09375 L 12.898438 5.644531 C 12.898438 5.371094 12.679688 5.148438 12.402344 5.148438 Z M 11.410156 5.148438 "/>
     <defs>
  <style id="current-color-scheme" type="text/css">
   .ColorScheme-Text { color:#eeeeee; } .ColorScheme-Highlight { color:#424242; }
  </style>
 </defs>
<path style="fill:currentColor" class="ColorScheme-Text" d="M 18.492188 9.820312 C 18.421875 9.554688 18.148438 9.398438 17.882812 9.46875 L 11.652344 11.140625 C 11.121094 11.28125 10.808594 11.824219 10.953125 12.355469 C 11.09375 12.886719 11.636719 13.199219 12.167969 13.054688 L 18.398438 11.386719 C 18.664062 11.316406 18.820312 11.042969 18.75 10.777344 Z M 18.492188 9.820312 "/>
</g>
</svg>
